X:1
T:TRYSPIR
M:3/4
L:1/4
K:C
 G| c2 c| e2 d| c2 A| G2 G| c2 c| e| c3/2 z/2 e| c A/2 G3/2| c3.99999962500005/11.9999985000002 c3.99999962500005/11.9999985000002 c3.99999962500005/11.9999985000002 c3.99999962500005/11.9999985000002 e3.99999962500005/11.9999985000002 e3.99999962500005/11.9999985000002 g|\
 g2 a/2g/2|
